!!!COM: Palestrina, Giovanni Perluigi da
!!!OPR: Missa De beata virgine (1570)
!!!OMD: Gloria
!!!OTL: First Section
**kern	**kern	**kern	**kern	**kern	**kern
*Ibass	*Itenor	*Itenor	*Icalto	*Icant	*Icant
!Bassus	!Tenor 2	!Tenor 1	!Altus	!Cantus 2	!Cantus 1
*clefF4	*clefGv2	*clefGv2	*clefG2	*clefG2	*clefG2
*k[b-]	*k[b-]	*k[b-]	*k[b-]	*k[b-]	*k[b-]
*?:X	*?:X	*?:X	*?:X	*?:X	*?:X
*M4/2	*M4/2	*M4/2	*M4/2	*M4/2	*M4/2
=1	=1	=1	=1	=1	=1
0r	0r	1G	1g	1dd	1b
.	.	2.c	2g	1ee	1cc
.	.	.	[2g	.	.
.	.	4d	.	.	.
=2	=2	=2	=2	=2	=2
0r	0r	1e	2g]	2.b	2g
.	.	.	4f	.	2g
.	.	.	4e	4cc	.
.	.	2d	2f	2dd	2.a
.	.	2d	2f	2dd	.
.	.	.	.	.	4b
=3	=3	=3	=3	=3	=3
0r	0r	2.c	2e	1.g	4cc
.	.	.	.	.	4dd
.	.	.	2cc	.	1ee
.	.	4d	.	.	.
.	.	2e	2b	.	.
.	.	2f	[2a	2a	2cc
=4	=4	=4	=4	=4	=4
0r	0r	2e	4a]	2b	2ee
.	.	.	4g	.	.
.	.	2c	1g	2cc	2ee
.	.	1d	.	1a	1dd
.	.	.	2f#	.	.
=5	=5	=5	=5	=5	=5
1c	2r	0r	1g	1g	1ee
.	1g	.	.	.	.
1A	.	.	2r	1r	1cc
.	2f	.	[2cc	.	.
=6	=6	=6	=6	=6	=6
1G	2e	0r	2cc]	1r	2gg
.	2d	.	1b	.	2gg
1A	2.c	.	.	2r	1ee
.	.	.	[2a	[2cc	.
.	4d	.	.	.	.
=7	=7	=7	=7	=7	=7
1E	2.e	0r	2a]	2cc]	1ee
.	.	.	2g	2b	.
.	8d	.	.	.	.
.	8c	.	.	.	.
1F	4d	.	2.f	2a	1r
.	4c	.	.	.	.
.	[2c	.	.	2a	.
.	.	.	4e	.	.
=8	=8	=8	=8	=8	=8
0G	2c]	2r	1d	1g	1r
.	4B	2.d	.	.	.
.	4A	.	.	.	.
.	2B	.	2G	1g	1dd
.	.	4c	.	.	.
.	2G	2B	2d	.	.
=9	=9	=9	=9	=9	=9
0r	2r	1A	2e	1r	1cc
.	2c	.	2f#	.	.
.	2.d	4G	1g	2r	1b
.	.	4A	.	.	.
.	.	4B	.	[2dd	.
.	4e	4c	.	.	.
=10	=10	=10	=10	=10	=10
0r	4f	4d	0r	2dd]	1a
.	4g	4e	.	.	.
.	2.a	2f	.	2.cc	.
.	.	2c	.	.	1cc
.	4g	.	.	4b	.
.	[2g	2e	.	2g	.
=11	=11	=11	=11	=11	=11
1r	2g]	1d	1r	1a	1dd
.	2f#	.	.	.	.
2.G	1g	1r	2.d	1b	1dd
4G	.	.	4d	.	.
=12	=12	=12	=12	=12	=12
2c	0r	2.c	2e	0r	1cc
2A	.	.	2f#	.	.
.	.	4c	.	.	.
1G	.	2d	1g	.	1b
.	.	2e	.	.	.
=13	=13	=13	=13	=13	=13
2.F	1r	1f	0c	0r	1a
8E	.	.	.	.	.
8D	.	.	.	.	.
2C	2r	1g	.	.	1cc
2E	[2g	.	.	.	.
=14	=14	=14	=14	=14	=14
1D	2g]	1a	0r	2r	1dd
.	2f	.	.	1dd	.
1r	1e	1g	.	.	2r
.	.	.	.	2cc	[2gg
=15	=15	=15	=15	=15	=15
0r	1d	0r	1r	2b	2gg]
.	.	.	.	2a	2ff
.	1c	.	2r	2.cc	1ee
.	.	.	[2g	.	.
.	.	.	.	4b	.
=16	=16	=16	=16	=16	=16
0r	1d	0r	2g]	4a	2.dd
.	.	.	.	4g	.
.	.	.	2f#	2.a	.
.	.	.	.	.	4cc
.	1e	.	1g	.	2b
.	.	.	.	4g	.
.	.	.	.	[2g	2cc
=17	=17	=17	=17	=17	=17
1r	1d	2r	1a	2g]	1dd
.	.	2d	.	2f#	.
2r	2r	2e	1g	1g	1b
2G	2B	2d	.	.	.
=18	=18	=18	=18	=18	=18
2A	2c	2f	2r	0r	0r
2G	2B	2.e	2g	.	.
2F	2A	.	2a	.	.
.	.	4d	.	.	.
2G	2B	[2d	[2g	.	.
=19	=19	=19	=19	=19	=19
1E	1G	2d]	2g]	0r	1r
.	.	2c#	4f	.	.
.	.	.	4e	.	.
1D	1A	1d	1f	.	2r
.	.	.	.	.	2dd
=20	=20	=20	=20	=20	=20
0r	0r	2c	1g	2r	2ee
.	.	2B	.	2dd	2dd
.	.	2c	2.g	2ee	2cc
.	.	2G	.	2dd	2b
.	.	.	4f	.	.
=21	=21	=21	=21	=21	=21
0r	0r	2A	2e	2.cc	2a
.	.	1f	1a	.	2.cc
.	.	.	.	4b	.
.	.	.	.	2a	.
.	.	.	.	.	4b
.	.	2e	[2g	2cc	2g
=22	=22	=22	=22	=22	=22
1r	2r	1d	2g]	1dd	1a
.	2.d	.	2f#	.	.
[1G	.	2r	1g	2r	2b
.	4c	.	.	.	.
.	4B	[2d	.	[2g	[2dd
.	4A	.	.	.	.
=23	=23	=23	=23	=23	=23
2G]	2B	2d]	2r	2g]	2dd]
2F#	2A	2d	2.d	2a	2dd
1G	2G	2B	.	1b	1dd
.	.	.	4d	.	.
.	[2g	[2G	2d	.	.
=24	=24	=24	=24	=24	=24
1C	2g]	4G]	2g	1cc	1ee
.	.	4G	.	.	.
.	2e	2c	2g	.	.
2F	1f	[1c	2a	1a	2cc
2F	.	.	[2cc	.	2a
=25	=25	=25	=25	=25	=25
0C	0e	1c]	2cc]	1g	1ee
.	.	.	4b	.	.
.	.	.	4a	.	.
.	.	1c	1g	1cc	2ee
.	.	.	.	.	4dd
.	.	.	.	.	4cc
=26	=26	=26	=26	=26	=26
1G	1d	2r	1g	1dd	2b
.	.	2d	.	.	1g
1r	1r	2e	1r	2r	.
.	.	2f	.	[2dd	2a
=27	=27	=27	=27	=27	=27
0r	0r	2g	2r	2dd]	2b
.	.	2e	2g	2ee	2cc
.	.	2d	2a	2ff	2r
.	.	2G	2b	[2gg	2dd
=28	=28	=28	=28	=28	=28
1r	0r	4.c	2cc	2gg]	2ee
.	.	8B	.	.	.
.	.	2A	1cc	2ff	2ff
2r	.	1G	.	2ee	1gg
2G	.	.	2b	2dd	.
=29	=29	=29	=29	=29	=29
2A	2r	1r	2a	2cc	2r
2B	2d	.	4g	4b	1gg
.	.	.	4f	4a	.
2c	2e	2.c	2e	2g	.
2A	2f	.	2c	[2cc	2ff
.	.	4d	.	.	.
=30	=30	=30	=30	=30	=30
2.G	2g	4e	2r	2cc]	2ee
.	.	4f	.	.	.
.	1g	2g	2d	2b	2dd
4F	.	.	.	.	.
2E	.	2G	2e	2.cc	2cc
2F	2f	2A	2c	.	2a
.	.	.	.	4dd	.
=31	=31	=31	=31	=31	=31
0C	2.e	1G	2.g	0ee	2.cc
.	4d	.	4f	.	4b
.	2c	1r	1e	.	2a
.	2B	.	.	.	[2g
=32	=32	=32	=32	=32	=32
0D	0A	2r	1a	[0dd	2g]
.	.	1d	.	.	4f
.	.	.	.	.	4e
.	.	.	1d	.	1f#
.	.	2A	.	.	.
=33	=33	=33	=33	=33	=33
0G	0G	2B	1d	1dd]	1g
.	.	2.d	.	.	.
.	.	.	1g	1r	2r
.	.	4c	.	.	.
.	.	2B	.	.	[2dd
=34	=34	=34	=34	=34	=34
0r	0r	1A	2f	1r	2dd]
.	.	.	2e	.	2cc
.	.	1r	2.d	1dd	2b
.	.	.	.	.	[2a
.	.	.	4e	.	.
=35	=35	=35	=35	=35	=35
0r	1r	0r	2f	2cc	2a]
.	.	.	2g	2b	1g
.	2r	.	1d	1a	.
.	[2d	.	.	.	2f#
=36	=36	=36	=36	=36	=36
1G	2d]	1d	1r	1b	1g
.	2.g	.	.	.	.
2.c	.	1e	1g	1cc	1r
.	4f	.	.	.	.
.	4e	.	.	.	.
4B	4d	.	.	.	.
=37	=37	=37	=37	=37	=37
2.A	2e	1c	2.cc	1r	0r
.	2.e	.	.	.	.
4G	.	.	4b	.	.
2F	.	1d	2a	1dd	.
.	4d	.	.	.	.
2G	[2d	.	2b	.	.
=38	=38	=38	=38	=38	=38
1E	4d]	1G	1g	1.gg	0r
.	4c	.	.	.	.
.	4c	.	.	.	.
.	4B	.	.	.	.
1D	2.d	2r	1a	.	.
.	.	2d	.	2ff	.
.	4A	.	.	.	.
=39	=39	=39	=39	=39	=39
2r	2c	2e	1g	2ee	0r
2G	2B	2g	.	2.dd	.
2A	1c	2f	2r	.	.
.	.	.	.	4cc	.
[2c	.	4e	2c	2cc	.
.	.	4d	.	.	.
=40	=40	=40	=40	=40	=40
2c]	0r	2c	2e	2a	2r
2B	.	2d	1g	2b	2g
1A	.	2e	.	1cc	2a
.	.	2c	2f	.	[2cc
=41	=41	=41	=41	=41	=41
1G	0r	1g	2e	2r	2cc]
.	.	.	2d	2g	2b
1F	.	1c	2.f	2a	1a
.	.	.	.	[2cc	.
.	.	.	4e	.	.
=42	=42	=42	=42	=42	=42
2G	2r	0r	2d	2cc]	1g
2E	2G	.	2e	2b	.
1F	1A	.	2c	1a	2cc
.	.	.	2f	.	2dd
=43	=43	=43	=43	=43	=43
1C	1.c	0r	2.e	1g	1.ee
.	.	.	4f	.	.
1r	.	.	2g	2cc	.
.	2B	.	2g	2dd	2dd
=44	=44	=44	=44	=44	=44
0r	1A	0r	2.c	2.ee	2.cc
.	.	.	4d	4dd	8b
.	.	.	.	.	8a
.	2c	.	4e	2cc	1g
.	.	.	4f	.	.
.	2G	.	[2g	2b	.
=45	=45	=45	=45	=45	=45
0r	1d	2r	2g]	0a	1r
.	.	2d	2f	.	.
.	1A	2c	1e	.	2r
.	.	2A	.	.	2a
=46	=46	=46	=46	=46	=46
1r	0r	0B-	0d	0r	2g
.	.	.	.	.	2f
1G	.	.	.	.	1g
=47	=47	=47	=47	=47	=47
2F	2r	2A	0r	0r	1a
2D	2d	2A	.	.	.
[1E	2c	2.G	.	.	1ee
.	2B	.	.	.	.
.	.	4F	.	.	.
=48	=48	=48	=48	=48	=48
1E]	1c	1G	1g	1r	2ee
.	.	.	.	.	2ee
1D	1d	[1A	2f	2r	1ff
.	.	.	2d	2dd	.
=49	=49	=49	=49	=49	=49
0r	0r	2A]	0e	2cc	1ee
.	.	2G	.	2b	.
.	.	1A	.	1cc	2r
.	.	.	.	.	[2a
=50	=50	=50	=50	=50	=50
0r	2r	1d	2d	1dd	2a]
.	2d	.	2f	.	2b
.	2e	2c	2g	2r	4cc
.	.	.	.	.	4b
.	[2f	2F	[2a	2cc	4a
.	.	.	.	.	4g
=51	=51	=51	=51	=51	=51
0r	2f]	0r	2a]	2dd	2f
.	4e	.	1g	1ee	2g
.	4d	.	.	.	.
.	2c	.	.	.	1a
.	2d	.	2f#	[2dd	.
=52	=52	=52	=52	=52	=52
1r	1e	1r	1g	2dd]	2g
.	.	.	.	2cc#	1gg
1D	1d	2r	[1a	1dd	.
.	.	[2A	.	.	2ff
=53	=53	=53	=53	=53	=53
0A	1r	4A]	1a]	0cc	2.ee
.	.	4B	.	.	.
.	.	4c	.	.	.
.	.	4d	.	.	4dd
.	1A	2e	1a	.	4cc
.	.	.	.	.	4b
.	.	[2c	.	.	[2a
=54	=54	=54	=54	=54	=54
1F	1c	2c]	0a	0ff	2a]
.	.	1A	.	.	2.ff
1D	1d	.	.	.	.
.	.	.	.	.	4ee
.	.	[2a	.	.	[2dd
=55	=55	=55	=55	=55	=55
1A	2e	4a]	[0a	1ee	2dd]
.	.	4g	.	.	.
.	2.a	2e	.	.	2cc#
1D	.	2f	.	[1dd	4dd
.	4g	.	.	.	4ee
.	2f	2d	.	.	4ff
.	.	.	.	.	4dd
=56	=56	=56	=56	=56	=56
1r	0e	0A	0a]	2dd]	0ee
.	.	.	.	4cc	.
.	.	.	.	4b	.
1A	.	.	.	1cc#	.
=57	=57	=57	=57	=57	=57
1B	1d	2r	0r	1dd	0r
.	.	2d	.	.	.
1c	1r	1e	.	2.cc	.
.	.	.	.	4b	.
=58	=58	=58	=58	=58	=58
1d	0r	1f	0r	1a	2r
.	.	.	.	.	2a
2G	.	2g	.	2r	1b
2B	.	2d	.	2dd	.
=59	=59	=59	=59	=59	=59
1A	0r	2.a	2r	1ee	1cc
.	.	.	1a	.	.
.	.	4g	.	.	.
1D	.	4f	.	1ff	1dd
.	.	4e	.	.	.
.	.	4d	[2b	.	.
.	.	8c	.	.	.
.	.	8d	.	.	.
=60	=60	=60	=60	=60	=60
0r	0r	1e	2b]	1gg	1b
.	.	.	2g	.	.
.	.	2c	1a	2ee	2cc
.	.	[2d	.	[2ff	[2a
=61	=61	=61	=61	=61	=61
0r	0r	2d]	2f	2ff]	2a]
.	.	2G	1g	2dd	2b
.	.	2c	.	2ee	1g
.	.	2e	2e	2cc	.
=62	=62	=62	=62	=62	=62
0r	0r	1d	2f	1dd	2a
.	.	.	1a	.	2f
.	.	2e	.	2b	1g
.	.	2c	[2g	2cc	.
=63	=63	=63	=63	=63	=63
1r	2r	2.d	2g]	2a	1.dd
.	1d	.	2f#	2a	.
.	.	4c	.	.	.
1G	.	2.B	1g	1g	.
.	[2g	.	.	.	2dd
.	.	8A	.	.	.
.	.	8G	.	.	.
=64	=64	=64	=64	=64	=64
1.c	2g]	1A	1r	0r	2.cc
.	2f#	.	.	.	.
.	.	.	.	.	4dd
.	2.g	1G	2r	.	2ee
2B	.	.	[2g	.	2dd
.	4f	.	.	.	.
=65	=65	=65	=65	=65	=65
2.c	4e	2r	2g]	0r	1ee
.	4d	.	.	.	.
.	1e	1c	1cc	.	.
4B	.	.	.	.	.
2A	.	.	.	.	1r
2d	2f	[2f	2b	.	.
=66	=66	=66	=66	=66	=66
1c	2g	2f]	2.cc	0r	0r
.	2c	2e	.	.	.
.	.	.	4b	.	.
2r	2d	2f	2a	.	.
2c	2e	2g	2g	.	.
=67	=67	=67	=67	=67	=67
4F	1c	1a	1f	0r	0r
4G	.	.	.	.	.
4A	.	.	.	.	.
4B	.	.	.	.	.
2c	2r	2g	2e	.	.
2d	[2a	2f	[2d	.	.
=68	=68	=68	=68	=68	=68
1A	4a]	1e	2d]	0r	0r
.	4g	.	.	.	.
.	2e	.	2c#	.	.
2r	2.f	2d	1d	.	.
2D	.	[2a	.	.	.
.	4e	.	.	.	.
=69	=69	=69	=69	=69	=69
2F	2c	4a]	2A	0r	0r
.	.	4g	.	.	.
4D	1d	1f	1a	.	.
4E	.	.	.	.	.
4F	.	.	.	.	.
4G	.	.	.	.	.
2A	2c#	[2e	2a	.	.
=70	=70	=70	=70	=70	=70
1D	1d	4e]	1f	1r	0r
.	.	4d	.	.	.
.	.	1d	.	.	.
1E	1G	.	2.g	2r	.
.	.	2c#	.	[2gg	.
.	.	.	4a	.	.
=71	=71	=71	=71	=71	=71
1D	0r	1d	2b-	2gg]	2r
.	.	.	4a	2ff	1dd
.	.	.	4g	.	.
1r	.	1A	1a	2ee	.
.	.	.	.	2ee	2cc
=72	=72	=72	=72	=72	=72
0r	2r	0r	0r	2.dd	2.b
.	1g	.	.	.	.
.	.	.	.	4cc	4cc
.	.	.	.	2b	4dd
.	.	.	.	.	4ee
.	2f	.	.	2a	[2dd
=73	=73	=73	=73	=73	=73
0r	2e	0r	2r	1g	2dd]
.	2e	.	1g	.	2cc#
.	1d	.	.	[1a	1dd
.	.	.	2f	.	.
=74	=74	=74	=74	=74	=74
0A	0c#	2r	2e	0a]	0ee
.	.	1e	2e	.	.
.	.	.	2A	.	.
.	.	[2A	2a	.	.
=75	=75	=75	=75	=75	=75
1D	2.d	2A]	1a	2r	1ff
.	.	1d	.	1dd	.
.	4c	.	.	.	.
1G	2B	.	1g	.	1dd
.	2G	2B	.	[2gg	.
=76	=76	=76	=76	=76	=76
1C	1g	1c	2.e	4gg]	1.ee
.	.	.	.	4ff	.
.	.	.	.	4ee	.
.	.	.	4f	4dd	.
1C	1e	1G	1g	2cc	.
.	.	.	.	2b	2dd
=77	=77	=77	=77	=77	=77
0F	2.f	1.A	1c	2.a	2cc
.	.	.	.	.	2b
.	8e	.	.	4b	.
.	8d	.	.	.	.
.	[1c	.	1f	2cc	1a
.	.	2B	.	2dd	.
=78	=78	=78	=78	=78	=78
1C	1c]	1c	2.e	1ee	2.g
.	.	.	4f	.	4a
1G	[1d	1B	1g	[1dd	4b
.	.	.	.	.	4cc
.	.	.	.	.	4dd
.	.	.	.	.	4ee
=79	=79	=79	=79	=79	=79
0D	2d]	[0A	1.a	2dd]	2.ff
.	2e	.	.	4cc	.
.	.	.	.	4b	4ee
.	1f	.	.	[1a	4dd
.	.	.	.	.	4cc
.	.	.	2d	.	[2dd
=80	=80	=80	=80	=80	=80
0A	0e	0A]	2e	0a]	2dd]
.	.	.	2.a	.	4cc
.	.	.	.	.	4b
.	.	.	.	.	1cc#
.	.	.	4g	.	.
.	.	.	2e	.	.
=81	=81	=81	=81	=81	=81
0D	0d	0A	0f#	0a	0dd
=82	=82	=82	=82	=82	=82
0r	1d	0r	0a	1dd	1ff
.	1A	.	.	1cc#	1ee
=83	=83	=83	=83	=83	=83
0r	1d	0r	1a	1dd	1ff
.	1G	.	2g	2b	2dd
.	.	.	2d	2b	2dd
=84	=84	=84	=84	=84	=84
0r	2r	0r	1f	2.a	2cc
.	2d	.	.	.	2dd
.	.	.	.	4b	.
.	2c	.	2g	2cc	2ee
.	2d	.	4f	[2a	[2ff
.	.	.	4e	.	.
=85	=85	=85	=85	=85	=85
0r	1B-	1r	1d	4a]	4ff]
.	.	.	.	8g	4ee
.	.	.	.	8f	.
.	.	.	.	2g	1dd
.	1A	2r	1e	1a	.
.	.	[2a	.	.	2cc#
=86	=86	=86	=86	=86	=86
0r	1d	4a]	2d	1a	1dd
.	.	4g	.	.	.
.	.	1f	1a	.	.
.	1c	.	.	2r	1r
.	.	2e	2g	[2ee	.
=87	=87	=87	=87	=87	=87
0r	1d	0a	1f	2ee]	1r
.	.	.	.	2dd	.
.	2.A	.	2e	[1cc	2r
.	.	.	4c	.	[2ee
.	4B	.	4d	.	.
=88	=88	=88	=88	=88	=88
0r	2c	2.g	4e	2cc]	2ee]
.	.	.	4f	.	.
.	2G	.	2g	2b	2dd
.	.	4f	.	.	.
.	2.A	2e	1c	4a	[1cc
.	.	.	.	4b	.
.	.	2a	.	4cc	.
.	4B	.	.	4dd	.
=89	=89	=89	=89	=89	=89
0r	2c	2.g	0r	2ee	2cc]
.	2G	.	.	1dd	2b
.	.	4f	.	.	.
.	1A	1e	.	.	1a
.	.	.	.	2cc#	.
=90	=90	=90	=90	=90	=90
0G	2r	0d	0g	1dd	1b
.	2G	.	.	.	.
.	1B	.	.	1gg	1b
=91	=91	=91	=91	=91	=91
1D	1A	2r	1a	1ff#	0dd
.	.	2d	.	.	.
1G	[1G	1d	1b	1gg	.
=92	=92	=92	=92	=92	=92
1C	1G]	2e	0g	1ee	2cc
.	.	2c	.	.	2cc
1G	2r	4d	.	1dd	2b
.	.	4c	.	.	.
.	2g	4B	.	.	2b
.	.	4A	.	.	.
=93	=93	=93	=93	=93	=93
1E	1g	2B	2r	2ee	4g
.	.	.	.	.	4a
.	.	2G	2e	2ee	4b
.	.	.	.	.	4cc
2D	2.f	2A	2.a	1ff	4dd
.	.	.	.	.	4ee
[2d	.	2D	.	.	[2ff
.	4e	.	4g	.	.
=94	=94	=94	=94	=94	=94
2d]	2f	1d	2a	1dd	4ff]
.	.	.	.	.	4ee
2G	2g	.	2b-	.	1dd
1A	1e	1r	2.a	1r	.
.	.	.	.	.	2cc#
.	.	.	4g	.	.
=95	=95	=95	=95	=95	=95
1D	1d	2.d	4f	2r	1dd
.	.	.	4e	.	.
.	.	.	2f	1dd	.
.	.	4c	.	.	.
[1G	[1d	2B	[1g	.	1r
.	.	2A	.	2cc	.
=96	=96	=96	=96	=96	=96
1G]	2d]	1G	1g]	2b	1.dd
.	2c	.	.	2a	.
1G	2B	[1g	1r	1g	.
.	2A	.	.	.	2cc
=97	=97	=97	=97	=97	=97
1G	2G	2g]	1.g	1r	2b
.	2d	2f	.	.	2a
[1c	2e	2.e	.	2r	[1g
.	2f	.	2f	[2cc	.
.	.	4d	.	.	.
=98	=98	=98	=98	=98	=98
2c]	2.g	2c	2e	2cc]	1g]
2B	.	2G	2d	2dd	.
.	4d	.	.	.	.
2A	1a	2r	2c	2ee	[1cc
2F	.	[2c	2f	2ff	.
=99	=99	=99	=99	=99	=99
2c	1g	2c]	2e	1gg	2cc]
2B	.	2G	2d	.	2dd
1A	1r	2c	2a	2.cc	2ee
.	.	2A	[2cc	.	2ff
.	.	.	.	4dd	.
=100	=100	=100	=100	=100	=100
1G	2r	2B-	2cc]	2ee	1gg
.	4d	2G	2b-	1dd	.
.	4e	.	.	.	.
1A	4f	2c	[1a	.	2ff
.	4g	.	.	.	.
.	2a	[2A	.	2cc#	[2ee
=101	=101	=101	=101	=101	=101
1D	2.f	2A]	0a]	1dd	4ee]
.	.	.	.	.	4dd
.	.	2.a	.	.	1dd
.	4d	.	.	.	.
1A	1e	.	.	1r	.
.	.	4g	.	.	.
.	.	2e	.	.	2cc#
=102	=102	=102	=102	=102	=102
0D	1d	0f#	1a	0r	1dd
.	1r	.	1r	.	1r
=103	=103	=103	=103	=103	=103
0r	0e	0r	1b	2r	0gg
.	.	.	.	2g	.
.	.	.	1g	2b	.
.	.	.	.	2cc	.
=104	=104	=104	=104	=104	=104
0r	1d	0r	2.a	1dd	1ff
.	.	.	4b	.	.
.	1c	.	1cc	2g	1ee
.	.	.	.	[2gg	.
=105	=105	=105	=105	=105	=105
0r	1d	0r	0a	2gg]	1dd
.	.	.	.	2ff	.
.	1A	.	.	2.ee	1cc
.	.	.	.	4dd	.
=106	=106	=106	=106	=106	=106
0r	1.c	0r	1.g	4cc	1.ee
.	.	.	.	4b	.
.	.	.	.	1cc	.
.	2G	.	2g	4b	2dd
.	.	.	.	4a	.
=107	=107	=107	=107	=107	=107
1r	1G	1r	1g	1b	0dd
1d	1r	1f	1a	2r	.
.	.	.	.	2dd	.
=108	=108	=108	=108	=108	=108
1G	0r	1g	1b-	1dd	0r
[1d	.	2.f	4a	2dd	.
.	.	.	4g	.	.
.	.	.	4f	2dd	.
.	.	4g	4e	.	.
=109	=109	=109	=109	=109	=109
2d]	0r	0a	2d	2ff	0r
2c	.	.	2A	2ee	.
1f	.	.	2r	2dd	.
.	.	.	2a	4cc	.
.	.	.	.	4dd	.
=110	=110	=110	=110	=110	=110
2e	0r	2r	2g	4ee	0r
.	.	.	.	4cc	.
2d	.	1a	2f	2.ff	.
1c	.	.	1cc	.	.
.	.	.	.	4ee	.
.	.	[2g	.	[2ee	.
=111	=111	=111	=111	=111	=111
1d	1r	4g]	1a	4ee]	0r
.	.	4f	.	4dd	.
.	.	2f	.	1dd	.
1A	2r	1e	1a	.	.
.	[2A	.	.	2cc#	.
=112	=112	=112	=112	=112	=112
1D	2A]	1d	1f	1dd	2r
.	2B	.	.	.	2dd
1A	1c	2r	2e	1r	2ee
.	.	2A	2cc	.	2ff
=113	=113	=113	=113	=113	=113
2.G	1d	1B	1b	2r	1.gg
.	.	.	.	2dd	.
4F	.	.	.	.	.
2E	2G	2c	1r	2ee	.
2D	2A	2d	.	2ff	2ff
=114	=114	=114	=114	=114	=114
[0C	0c	1.e	[0g	1.gg	2ee
.	.	.	.	.	2dd
.	.	.	.	.	[1cc
.	.	2d	.	2ff	.
=115	=115	=115	=115	=115	=115
0C]	1.G	0c	0g]	2ee	2cc]
.	.	.	.	2dd	2dd
.	.	.	.	1cc	1ee
.	2A	.	.	.	.
=116	=116	=116	=116	=116	=116
1G	1B	1d	1g	1b	2dd
.	.	.	.	.	1gg
1r	1d	1r	[1a	2r	.
.	.	.	.	[2dd	2ff
=117	=117	=117	=117	=117	=117
0r	1A	0r	2a]	2dd]	1.ee
.	.	.	2a	2cc	.
.	2e	.	2g	2b	.
.	2c	.	2e	2cc	2ee
=118	=118	=118	=118	=118	=118
0r	2d	0r	2f	2a	2dd
.	2e	.	1g	2g	2cc
.	1d	.	.	1a	1dd
.	.	.	2f#	.	.
=119	=119	=119	=119	=119	=119
1r	1G	1r	1g	1b	1dd
[1A	1r	2.c	1e	1a	1r
.	.	4d	.	.	.
=120	=120	=120	=120	=120	=120
1A]	0r	2e	1a	1cc	0r
.	.	1f	.	.	.
1B-	.	.	2.f	2dd	.
.	.	[2d	.	[2ff	.
.	.	.	4g	.	.
=121	=121	=121	=121	=121	=121
1A	0r	2d]	4a	2ff]	0r
.	.	.	4b	.	.
.	.	2c	1cc	2.ee	.
1G	.	2.g	.	.	.
.	.	.	.	4dd	.
.	.	.	2b	[2dd	.
.	.	4f	.	.	.
=122	=122	=122	=122	=122	=122
1.A	0r	1.e	1.a	2dd]	0r
.	.	.	.	4cc	.
.	.	.	.	4b	.
.	.	.	.	2cc	.
2G	.	2g	2b	2dd	.
=123	=123	=123	=123	=123	=123
0G	0r	2.g	1cc	1dd	1r
.	.	8f	.	.	.
.	.	8e	.	.	.
.	.	1d	1g	2r	1gg
.	.	.	.	[2dd	.
=124	=124	=124	=124	=124	=124
0r	0r	0r	2b-	2dd]	1ff
.	.	.	1a	1cc	.
.	.	.	.	.	1ee
.	.	.	2g	2b-	.
=125	=125	=125	=125	=125	=125
0r	0r	0r	2f	2a	1.dd
.	.	.	2.g	2.b-	.
.	.	.	4f	4a	.
.	.	.	4e	4g	4cc
.	.	.	4d	4f	4b
=126	=126	=126	=126	=126	=126
1r	1r	0r	2e	2g	2cc#
.	.	.	2d	2a	2dd
[1G	[1g	.	[1d	[1b-	[1dd
=127	=127	=127	=127	=127	=127
1G]	1g]	1d	1d]	1b-]	1dd]
1B-	[1f	1d	1r	1r	1r
=128	=128	=128	=128	=128	=128
2A	2f]	2c	0r	0r	0r
2G	2e	2B-	.	.	.
2F	1d	2A	.	.	.
[2G	.	[2B-	.	.	.
=129	=129	=129	=129	=129	=129
4G]	2d	4B-]	2r	0r	0r
4F	.	4A	.	.	.
4E	4c	4G	1g	.	.
4D	4B	4F	.	.	.
2E	2c#	2G	.	.	.
2D	2d	2A	4f	.	.
.	.	.	4e	.	.
=130	=130	=130	=130	=130	=130
1D	1d	1A	1f#	1a	1r
1r	1r	1r	1g	1b	1dd
=131	=131	=131	=131	=131	=131
0r	0r	0r	2c	1cc	1ee
.	.	.	1cc	.	.
.	.	.	.	1g	2dd
.	.	.	2b	.	2dd
=132	=132	=132	=132	=132	=132
0r	0r	0r	2a	1cc	2ee
.	.	.	2a	.	2ff
.	.	.	4g	2dd	[1gg
.	.	.	4f	.	.
.	.	.	4e	[2ee	.
.	.	.	4d	.	.
=133	=133	=133	=133	=133	=133
0r	0r	0r	2c	2ee]	2gg]
.	.	.	2d	1dd	2ff
.	.	.	1a	.	1ee
.	.	.	.	2cc#	.
=134	=134	=134	=134	=134	=134
0G	0g	0d	0b	0dd	0dd
=135	=135	=135	=135	=135	=135
1F	1a	1f	1cc	0r	0r
1G	1g	2d	2b-	.	.
.	.	2e	2g	.	.
=136	=136	=136	=136	=136	=136
2.d	2r	2.f	2a	0r	0r
.	2d	.	2b	.	.
8c	.	8e	.	.	.
8B	.	8d	.	.	.
1A	2e	4c	[1cc	.	.
.	.	4B	.	.	.
.	2f	4c	.	.	.
.	.	4d	.	.	.
=137	=137	=137	=137	=137	=137
1G	2.g	2e	2cc]	0r	0r
.	.	1d	2b-	.	.
.	4f	.	.	.	.
1A	1e	.	1a	.	.
.	.	2c#	.	.	.
=138	=138	=138	=138	=138	=138
0D	1d	0d	1a	1r	0r
.	[1f	.	1r	[1a	.
=139	=139	=139	=139	=139	=139
0F	2f]	0A	0a	1a]	0cc
.	4e	.	.	.	.
.	4d	.	.	.	.
.	1c	.	.	[1ff	.
=140	=140	=140	=140	=140	=140
0F	1.A	1.c	0a	2ff]	0ff
.	.	.	.	4ee	.
.	.	.	.	4dd	.
.	.	.	.	1cc	.
.	2B	2d	.	.	.
=141	=141	=141	=141	=141	=141
[0C	0c	1e	1g	1.gg	1.ee
.	.	[1g	[1e	.	.
.	.	.	.	2ff	2dd
=142	=142	=142	=142	=142	=142
0C]	1.G	2g]	2e]	1.ee	0cc
.	.	2f	2f	.	.
.	.	1e	1g	.	.
.	2A	.	.	4dd	.
.	.	.	.	4cc	.
=143	=143	=143	=143	=143	=143
1G	1B	1d	0g	1b	1dd
1r	1c	2r	.	1r	1ee
.	.	2g	.	.	.
=144	=144	=144	=144	=144	=144
0r	4A	1a	0r	1r	1cc
.	4B	.	.	.	.
.	4c	.	.	.	.
.	4d	.	.	.	.
.	2e	4g	.	1ee	2b
.	.	4f	.	.	.
.	[2A	4e	.	.	[2a
.	.	4d	.	.	.
=145	=145	=145	=145	=145	=145
0r	4A]	1e	0r	1cc	4a]
.	4B	.	.	.	4g
.	2c	.	.	.	1g
.	2G	2.d	.	2b	.
.	2d	.	.	[2a	2f#
.	.	8c	.	.	.
.	.	8d	.	.	.
=146	=146	=146	=146	=146	=146
0r	2c	2e	0r	4a]	2.g
.	.	.	.	4g	.
.	2B	2d	.	1g	.
.	.	.	.	.	8a
.	.	.	.	.	8b
.	1A	1c	.	.	1cc
.	.	.	.	2f#	.
*-	*-	*-	*-	*-	*-
!!!CDT: 1525/^1526/-1594/2/2
!!!OCY: Italia
!!!AGN: Mass (Paraphrase)
!!!AST: renaissance, vocal
!!!ASW: Gregorian Mass
!!!PWK: Masses, Book 3
!!!RNB: Cadence finals: G,D,C,E,F
!!!YOR: Le Opere Complete, v. 6, p. 175
!!!YOO: Rome, Italy: Fratelli Scalera
!!!END: 1992//
!!!EED: John Miller
!!!YEC: Copyright 2000, John Miller
!!!YEN: United States of America
!!!YEM: Rights to all derivative electronic formats reserved.
!!!YEM: Refer to licensing agreement for further details.
!!!YEM: This file must be accompanied by the licensing agreement.
!!!YEM: A copy of the licensing agreement may be found at http://www.music-cog.ohio-state.edu/HumdrumDatabases/Palestrina/license.txt
!!!EMD: converted to Humdrum by Bret Aarden
